icon-svg/ikea-starkvind.svg

<svg xmlns="http://www.w3.org/2000/svg" viewBox="0 0 24 24"><path fill="#44739e" d="M5.463 19.549a.13.13 0 0 1-.155-.019.13.13 0 0 1-.032-.153l.731-1.667a.01.01 0 0 0 0-.014l-.219-.2-.165-.11.222-.217a.2.2 0 0 0 .016-.275l-.13-.16a.15.15 0 0 0-.1-.054h-.016a.15.15 0 0 0-.1.037l-.371.327a.013.013 0 0 0 0 .017l.271.34a.13.13 0 0 1 .016.141l-1.101 2.32a.16.16 0 0 0 .006.149.16.16 0 0 0 .125.079l.557.046a.23.23 0 0 0 .128-.029l2.293-1.3a.1.1 0 0 1 .051-.017l-.264-.207Zm13.253-2.292-.418.534.91 1.958a.41.41 0 0 1-.075.455l-.958 1.007a.16.16 0 0 1-.168.053.16.16 0 0 1-.115-.142l-.217-2.763-.307.215-.323-.35a.11.11 0 0 0-.159-.007l-.241.22a.15.15 0 0 0-.047.105.14.14 0 0 0 .041.107l.347.358.422-.205.078 2.7a.22.22 0 0 0 .074.155l.358.309a.14.14 0 0 0 .188-.005l1.752-1.707a.23.23 0 0 0 .05-.252ZM16.772 6.1a.21.21 0 0 0 0 .294l.209.219a.144.144 0 0 0 .193.015l.65-.494.868-.321-.453-.55-1.013.386Zm-11.18-.761.248-.192a.12.12 0 0 0 .046-.085.12.12 0 0 0-.029-.093l-.335-.384.211-.168h-.244l-.5.476.42.433a.14.14 0 0 0 .183.013m7.055-2.683a.114.114 0 0 0 .132-.116v-.169A.38.38 0 0 0 12.394 2h-.408a.38.38 0 0 0-.381.4.12.12 0 0 0 .1.108Zm2.738 1.437a9.3 9.3 0 0 1 1.762 1.458l.008-.008.934-.356a10.3 10.3 0 0 0-4.109-2.463 7 7 0 0 0-1.08-.22v.033a.23.23 0 0 1-.08.183.24.24 0 0 1-.155.059h-.037l-.945-.149a.24.24 0 0 1-.181-.142c-.5.054-.811.168-.821.239a9.4 9.4 0 0 1 4.704 1.366m4.632 3.967a8.5 8.5 0 0 0-1.267-2.141l-.879.325-.074.057a9.2 9.2 0 0 1 1.378 2.426 11.23 11.23 0 0 1-.8 8.774l.375-.481.01.024a12.7 12.7 0 0 0 1.261-2.175 5.1 5.1 0 0 0 .492-2.036 9.75 9.75 0 0 0-.496-4.773m-3.541 10.478a.27.27 0 0 1 .087-.19l.241-.221a.235.235 0 0 1 .331.014l.11.119a8.95 8.95 0 0 0 2.141-6.175 9.13 9.13 0 0 0-1.92-5.53l-.222.169a.266.266 0 0 1-.355-.028l-.209-.219a.33.33 0 0 1 .006-.464l.175-.175a8.7 8.7 0 0 0-6.286-2.868 7.02 7.02 0 0 0-4.829 1.688l.2.231a.244.244 0 0 1-.035.354l-.248.192a.26.26 0 0 1-.16.055.26.26 0 0 1-.189-.08l-.15-.155a8.5 8.5 0 0 0-1.752 5.894 9.24 9.24 0 0 0 2.075 5.443.27.27 0 0 1 .15-.032.27.27 0 0 1 .188.1l.131.16a.325.325 0 0 1 .032.361 9.28 9.28 0 0 0 5.886 3.13 6.73 6.73 0 0 0 4.769-1.481l-.091-.1a.27.27 0 0 1-.076-.192"/></svg>

<?xml version="1.0" encoding="UTF-8"?>
<svg width="24px" fill="#44739e" height="24px" viewBox="0 0 24 24" version="1.1" xmlns="http://www.w3.org/2000/svg" xmlns:xlink="http://www.w3.org/1999/xlink">
            <path d="M 5.456,19.547 A 0.132,0.132 0 0 1 5.301,19.528 0.133,0.133 0 0 1 5.269,19.375 L 6,17.708 a 0.011,0.011 0 0 0 0,-0.014 l -0.219,-0.2 -0.165,-0.11 0.222,-0.217 a 0.2,0.2 0 0 0 0.016,-0.275 l -0.13,-0.16 a 0.146,0.146 0 0 0 -0.1,-0.054 H 5.608 a 0.15,0.15 0 0 0 -0.1,0.037 l -0.371,0.327 a 0.013,0.013 0 0 0 0,0.017 l 0.271,0.34 a 0.133,0.133 0 0 1 0.016,0.141 l -1.1,2.32 a 0.16,0.16 0 0 0 0.006,0.149 0.157,0.157 0 0 0 0.125,0.079 l 0.556,0.046 a 0.228,0.228 0 0 0 0.128,-0.029 l 2.293,-1.3 A 0.134,0.134 0 0 1 7.483,18.788 L 7.219,18.581 Z m 13.252,-2.292 -0.418,0.534 0.91,1.958 a 0.407,0.407 0 0 1 -0.075,0.455 l -0.958,1.007 a 0.157,0.157 0 0 1 -0.168,0.053 0.158,0.158 0 0 1 -0.115,-0.142 l -0.217,-2.763 -0.307,0.215 -0.323,-0.35 a 0.112,0.112 0 0 0 -0.159,-0.007 l -0.241,0.22 a 0.151,0.151 0 0 0 -0.047,0.105 0.143,0.143 0 0 0 0.041,0.107 l 0.347,0.358 0.422,-0.205 0.078,2.7 a 0.216,0.216 0 0 0 0.074,0.155 l 0.358,0.309 a 0.14,0.14 0 0 0 0.188,-0.005 L 19.85,20.252 A 0.227,0.227 0 0 0 19.9,20 Z M 16.764,6.1 a 0.21,0.21 0 0 0 0,0.293 l 0.209,0.219 a 0.144,0.144 0 0 0 0.193,0.015 l 0.65,-0.493 0.868,-0.321 -0.453,-0.55 -1.013,0.386 z M 5.585,5.339 5.833,5.147 A 0.123,0.123 0 0 0 5.879,5.062 0.121,0.121 0 0 0 5.85,4.969 L 5.515,4.585 5.726,4.417 H 5.482 l -0.5,0.476 0.42,0.433 A 0.141,0.141 0 0 0 5.585,5.339 Z M 12.64,2.656 A 0.114,0.114 0 0 0 12.772,2.54 V 2.371 A 0.379,0.379 0 0 0 12.387,2 h -0.408 a 0.381,0.381 0 0 0 -0.381,0.4 0.117,0.117 0 0 0 0.1,0.108 z m 2.737,1.437 a 9.334,9.334 0 0 1 1.762,1.458 l 0.008,-0.008 0.934,-0.356 a 10.318,10.318 0 0 0 -4.108,-2.463 7.024,7.024 0 0 0 -1.08,-0.22 v 0.033 a 0.233,0.233 0 0 1 -0.08,0.183 0.236,0.236 0 0 1 -0.155,0.059 0.222,0.222 0 0 1 -0.037,0 L 11.676,2.63 A 0.237,0.237 0 0 1 11.495,2.488 c -0.5,0.054 -0.811,0.168 -0.821,0.239 a 9.416,9.416 0 0 1 4.703,1.366 z m 4.632,3.966 a 8.5,8.5 0 0 0 -1.267,-2.14 l -0.879,0.325 -0.074,0.057 a 9.185,9.185 0 0 1 1.378,2.425 11.225,11.225 0 0 1 -0.8,8.773 l 0.375,-0.481 0.01,0.024 a 12.741,12.741 0 0 0 1.261,-2.174 5.062,5.062 0 0 0 0.492,-2.036 9.754,9.754 0 0 0 -0.496,-4.773 z m -3.541,10.477 a 0.265,0.265 0 0 1 0.087,-0.19 l 0.241,-0.221 a 0.235,0.235 0 0 1 0.331,0.014 l 0.11,0.119 a 8.947,8.947 0 0 0 2.141,-6.174 9.13,9.13 0 0 0 -1.92,-5.53 L 17.236,6.723 A 0.266,0.266 0 0 1 16.881,6.695 L 16.672,6.476 A 0.331,0.331 0 0 1 16.678,6.013 L 16.853,5.838 A 8.694,8.694 0 0 0 10.568,2.97 7.02,7.02 0 0 0 5.739,4.658 l 0.2,0.231 A 0.244,0.244 0 0 1 5.904,5.243 L 5.656,5.435 A 0.259,0.259 0 0 1 5.496,5.49 0.264,0.264 0 0 1 5.307,5.41 L 5.157,5.255 a 8.514,8.514 0 0 0 -1.751,5.893 9.243,9.243 0 0 0 2.074,5.442 0.267,0.267 0 0 1 0.15,-0.032 0.27,0.27 0 0 1 0.188,0.1 l 0.131,0.16 a 0.325,0.325 0 0 1 0.032,0.361 9.279,9.279 0 0 0 5.886,3.13 6.734,6.734 0 0 0 4.768,-1.481 l -0.091,-0.1 a 0.271,0.271 0 0 1 -0.076,-0.192 z"/>

</svg>
